X: 6
T: Mike Hobin's
R: mazurka
M: 3/4
L: 1/8
K: Gmaj
eA Ag fd | eA A2 (3Bcd | eg fd ce | dG G2 (3Bcd |eA Ag fd | eg ag ef | ge dB Gd | BA A2 :|ea ab ag | ed ef ga | ge af ge | dB G2 (3Bcd |ea ab ag | ed ef ga | ge d2 (3BAG | BA A2 :|


Tune 5883	Setting 17799

